; generated by PrusaSlicer 2.3.0+ on 2022-03-09 at 06:41:34 UTC

; 

; external perimeters extrusion width = 0.68mm
; perimeters extrusion width = 0.68mm
; infill extrusion width = 0.68mm
; solid infill extrusion width = 0.68mm
; top infill extrusion width = 0.60mm
; first layer extrusion width = 0.65mm

M73 P0 R35
M73 Q0 S35
M201 X1000 Y1000 Z200 E5000 ; sets maximum accelerations, mm/sec^2
M203 X200 Y200 Z12 E120 ; sets maximum feedrates, mm/sec
M204 P1250 R1250 T1250 ; sets acceleration (P, T) and retract acceleration (R), mm/sec^2
M205 X8.00 Y8.00 Z0.40 E4.50 ; sets the jerk limits, mm/sec
M205 S0 T0 ; sets the minimum extruding and travel feed rate, mm/sec
M107
;TYPE:Custom
M862.3 P "MK3S" ; printer model check
M862.1 P0.6 ; nozzle diameter check
M115 U3.10.1 ; tell printer latest fw version
G90 ; use absolute coordinates
M83 ; extruder relative mode
M104 S215 ; set extruder temp
M140 S60 ; set bed temp
M190 S60 ; wait for bed temp
M109 S215 ; wait for extruder temp
G28 W ; home all without mesh bed level
G80 ; mesh bed leveling
G1 Y-3.0 F1000.0 ; go outside print area
G92 E0.0
G1 X60.0 E9.0 F1000.0 ; intro line
G1 X100.0 E12.5 F1000.0 ; intro line
G92 E0.0
M221 S95
G21 ; set units to millimeters
G90 ; use absolute coordinates
M83 ; use relative distances for extrusion
M900 K0.04 ; Filament gcode LA 1.5
M900 K18 ; Filament gcode LA 1.0
;LAYER_CHANGE
;Z:0.2
;HEIGHT:0.2
;BEFORE_LAYER_CHANGE
G92 E0.0
;0.2


G1 E-0.80000 F2100.000
G1 Z0.400 F10800.000
;AFTER_LAYER_CHANGE
;0.2
G1 X81.963 Y81.234
G1 Z0.200
G1 E0.80000 F2100.000
M204 S1000
;TYPE:Skirt
;WIDTH:0.65
G1 F1200.000
G1 X82.342 Y80.509 E0.04131
G1 X82.782 Y80.048 E0.03214
G1 X83.320 Y79.708 E0.03214
G1 X85.833 Y78.600 E0.13865
G1 X88.916 Y77.406 E0.16687
G1 X92.031 Y76.348 E0.16605
G1 X95.321 Y75.376 E0.17321
G1 X98.716 Y74.511 E0.17683
G1 X102.179 Y73.761 E0.17887
G1 X105.827 Y73.105 E0.18712
G1 X109.430 Y72.582 E0.18377
M73 P0 R34
G1 X113.129 Y72.168 E0.18786
G1 X116.916 Y71.869 E0.19179
G1 X120.646 Y71.693 E0.18849
G1 X124.437 Y71.634 E0.19138
G1 X128.220 Y71.693 E0.19096
G1 X131.952 Y71.869 E0.18861
G1 X135.739 Y72.168 E0.19177
G1 X139.440 Y72.582 E0.18798
G1 X143.041 Y73.105 E0.18367
G1 X146.690 Y73.761 E0.18715
G1 X150.153 Y74.511 E0.17888
G1 X153.501 Y75.363 E0.17440
G1 X156.887 Y76.365 E0.17821
G1 X160.005 Y77.425 E0.16625
G1 X163.070 Y78.615 E0.16596
G1 X165.679 Y79.774 E0.14413
G1 X166.131 Y80.086 E0.02774
G1 X166.509 Y80.486 E0.02774
G1 X166.905 Y81.233 E0.04270
G1 X167.041 Y82.065 E0.04256
G1 X167.041 Y125.444 E2.18974
G1 X166.905 Y126.247 E0.04111
G1 X166.526 Y126.973 E0.04131
G1 X166.086 Y127.433 E0.03214
G1 X165.548 Y127.773 E0.03214
G1 X163.035 Y128.882 E0.13865
G1 X159.952 Y130.075 E0.16687
G1 X156.838 Y131.133 E0.16606
G1 X153.551 Y132.105 E0.17301
G1 X150.152 Y132.971 E0.17703
G1 X146.693 Y133.720 E0.17866
G1 X143.041 Y134.377 E0.18732
G1 X139.438 Y134.900 E0.18377
G1 X135.740 Y135.313 E0.18786
G1 X131.952 Y135.612 E0.19179
G1 X128.222 Y135.788 E0.18849
G1 X124.451 Y135.848 E0.19037
G1 X120.606 Y135.787 E0.19410
G1 X116.877 Y135.610 E0.18849
G1 X113.133 Y135.314 E0.18956
G1 X109.428 Y134.900 E0.18818
G1 X105.827 Y134.377 E0.18367
G1 X102.202 Y133.725 E0.18594
G1 X98.715 Y132.971 E0.18009
G1 X95.367 Y132.118 E0.17440
G1 X92.024 Y131.131 E0.17596
G1 X88.867 Y130.058 E0.16831
G1 X85.865 Y128.894 E0.16254
G1 X83.335 Y127.781 E0.13951
G1 X82.877 Y127.507 E0.02694
G1 X82.442 Y127.098 E0.03014
G1 X82.110 Y126.598 E0.03034
G1 X81.902 Y126.038 E0.03014
G1 X81.827 Y125.445 E0.03014
G1 X81.827 Y82.037 E2.19120
G1 X81.948 Y81.323 E0.03657
; printing object batt-holder-round.stl id:0 copy 0
;WIPE_START
G1 F8640.000
G1 X82.342 Y80.509 E-0.20882
G1 X82.782 Y80.048 E-0.14700
G1 X83.320 Y79.708 E-0.14700
G1 X84.339 Y79.259 E-0.25717
;WIPE_END
G1 E-0.04000 F2100.000
G1 Z0.600 F10800.000
G1 X88.302 Y82.609
M73 Q1 S35
G1 Z0.200
M73 P1 R34
G1 E0.80000 F2100.000
;TYPE:Perimeter
G1 F1200.000
G1 X105.802 Y82.609 E0.88338
G1 X105.802 Y77.609 E0.25239
G1 X143.066 Y77.609 E1.88105
M73 Q1 S34
G1 X143.066 Y82.609 E0.25239
G1 X160.566 Y82.609 E0.88338
G1 X160.566 Y124.873 E2.13345
G1 X143.066 Y124.873 E0.88338
G1 X143.066 Y129.873 E0.25239
G1 X105.802 Y129.873 E1.88105
G1 X105.802 Y124.873 E0.25239
G1 X88.302 Y124.873 E0.88338
G1 X88.302 Y82.699 E2.12890
G1 X88.909 Y83.216 F10800.000
;TYPE:External perimeter
G1 F1200.000
G1 X106.409 Y83.216 E0.88338
G1 X106.409 Y78.216 E0.25239
G1 X142.459 Y78.216 E1.81976
G1 X142.459 Y83.216 E0.25239
G1 X159.959 Y83.216 E0.88338
G1 X159.959 Y124.266 E2.07216
G1 X142.459 Y124.266 E0.88338
G1 X142.459 Y129.266 E0.25239
G1 X106.409 Y129.266 E1.81976
M73 P2 R34
M73 Q2 S34
G1 X106.409 Y124.266 E0.25239
G1 X88.909 Y124.266 E0.88338
G1 X88.909 Y83.306 E2.06761
G1 X88.829 Y82.621 F10800.000
;WIPE_START
G1 F8640.000
G1 X92.201 Y83.289 E-0.76000
;WIPE_END
G1 E-0.04000 F2100.000
G1 Z0.600 F10800.000
G1 X85.566 Y82.803
G1 Z0.200
G1 E0.80000 F2100.000
;TYPE:Perimeter
G1 F1200.000
G1 X87.259 Y82.057 E0.09340
G1 X90.142 Y80.939 E0.15606
G1 X93.163 Y79.912 E0.16108
G1 X96.311 Y78.982 E0.16570
G1 X99.573 Y78.151 E0.16991
G1 X102.935 Y77.423 E0.17365
G1 X106.384 Y76.802 E0.17690
G1 X109.906 Y76.291 E0.17965
G1 X113.486 Y75.890 E0.18187
G1 X117.111 Y75.603 E0.18354
G1 X120.765 Y75.431 E0.18466
G1 X124.449 Y75.373 E0.18601
G1 X128.103 Y75.431 E0.18446
G1 X131.757 Y75.603 E0.18467
G1 X135.382 Y75.890 E0.18354
G1 X138.963 Y76.291 E0.18187
G1 X142.484 Y76.802 E0.17965
G1 X145.933 Y77.423 E0.17690
G1 X149.296 Y78.151 E0.17365
G1 X152.557 Y78.982 E0.16991
G1 X155.705 Y79.912 E0.16570
G1 X158.726 Y80.939 E0.16108
G1 X161.609 Y82.057 E0.15606
G1 X163.302 Y82.803 E0.09340
G1 X163.302 Y124.678 E2.11381
G1 X161.609 Y125.425 E0.09340
G1 X158.726 Y126.543 E0.15606
G1 X155.705 Y127.569 E0.16108
G1 X152.557 Y128.500 E0.16570
G1 X149.296 Y129.331 E0.16991
G1 X145.933 Y130.059 E0.17365
G1 X142.484 Y130.679 E0.17690
G1 X138.963 Y131.191 E0.17965
G1 X135.382 Y131.591 E0.18187
G1 X131.757 Y131.878 E0.18354
G1 X128.103 Y132.051 E0.18467
G1 X124.434 Y132.109 E0.18523
G1 X120.765 Y132.051 E0.18523
G1 X117.111 Y131.878 E0.18467
G1 X113.486 Y131.591 E0.18354
G1 X109.906 Y131.191 E0.18187
G1 X106.384 Y130.679 E0.17965
G1 X102.935 Y130.059 E0.17690
G1 X99.573 Y129.331 E0.17365
G1 X96.311 Y128.500 E0.16991
G1 X93.163 Y127.569 E0.16570
G1 X90.142 Y126.543 E0.16108
G1 X87.259 Y125.425 E0.15606
G1 X85.566 Y124.678 E0.09340
G1 X85.566 Y82.893 E2.10926
G1 X84.959 Y82.407 F10800.000
;TYPE:External perimeter
G1 F1200.000
G1 X87.027 Y81.496 E0.11408
G1 X89.934 Y80.368 E0.15741
G1 X92.979 Y79.334 E0.16234
G1 X96.150 Y78.396 E0.16690
G1 X99.434 Y77.560 E0.17105
G1 X102.817 Y76.827 E0.17474
G1 X106.286 Y76.203 E0.17795
G1 X109.828 Y75.688 E0.18067
G1 X113.429 Y75.286 E0.18286
G1 X117.073 Y74.997 E0.18452
G1 X120.746 Y74.824 E0.18564
G1 X124.450 Y74.766 E0.18697
G1 X128.122 Y74.824 E0.18542
G1 X131.796 Y74.997 E0.18564
G1 X135.440 Y75.286 E0.18452
G1 X139.040 Y75.688 E0.18286
G1 X142.582 Y76.203 E0.18067
G1 X146.051 Y76.827 E0.17795
G1 X149.435 Y77.560 E0.17474
G1 X152.718 Y78.396 E0.17105
G1 X155.889 Y79.334 E0.16690
G1 X158.934 Y80.368 E0.16234
G1 X161.841 Y81.496 E0.15741
M73 P3 R34
G1 X163.909 Y82.407 E0.11408
M73 Q3 S34
G1 X163.909 Y125.074 E2.15377
G1 X161.841 Y125.986 E0.11408
G1 X158.934 Y127.113 E0.15741
G1 X155.889 Y128.148 E0.16234
G1 X152.718 Y129.086 E0.16690
G1 X149.435 Y129.922 E0.17105
G1 X146.051 Y130.654 E0.17474
G1 X142.582 Y131.279 E0.17795
G1 X139.040 Y131.793 E0.18067
G1 X135.440 Y132.196 E0.18286
G1 X131.796 Y132.484 E0.18452
G1 X128.122 Y132.658 E0.18564
G1 X124.434 Y132.716 E0.18620
G1 X120.746 Y132.658 E0.18620
G1 X117.073 Y132.484 E0.18564
G1 X113.429 Y132.196 E0.18452
G1 X109.828 Y131.793 E0.18286
G1 X106.286 Y131.279 E0.18067
G1 X102.817 Y130.654 E0.17795
G1 X99.434 Y129.922 E0.17474
G1 X96.150 Y129.086 E0.17105
G1 X92.979 Y128.148 E0.16690
G1 X89.934 Y127.113 E0.16234
G1 X87.027 Y125.986 E0.15741
M73 P3 R33
G1 X84.959 Y125.074 E0.11408
G1 X84.959 Y82.497 E2.14923
G1 X85.543 Y82.545 F10800.000
;WIPE_START
G1 F8640.000
G1 X87.027 Y81.496 E-0.53054
G1 X87.954 Y81.137 E-0.22946
;WIPE_END
G1 E-0.04000 F2100.000
G1 Z0.600 F10800.000
G1 X104.464 Y77.333
G1 Z0.200
G1 E0.80000 F2100.000
;TYPE:Solid infill
;WIDTH:0.652901
G1 F1200.000
G1 X105.347 Y78.216 E0.06335
G1 X105.347 Y79.079 E0.04375
G1 X103.968 Y77.700 E0.09891
G1 X103.237 Y77.831 E0.03767
G1 X105.347 Y79.941 E0.15135
G1 X105.347 Y80.804 E0.04375
G1 X102.521 Y77.978 E0.20267
G1 X101.812 Y78.132 E0.03680
G1 X105.347 Y81.667 E0.25354
G1 X105.347 Y82.153 E0.02469
G1 X104.971 Y82.153 E0.01906
G1 X101.103 Y78.285 E0.27746
G1 X100.394 Y78.439 E0.03680
G1 X104.108 Y82.153 E0.26645
G1 X103.246 Y82.153 E0.04375
G1 X99.684 Y78.592 E0.25545
G1 X98.997 Y78.767 E0.03599
G1 X102.383 Y82.153 E0.24290
G1 X101.520 Y82.153 E0.04375
G1 X98.309 Y78.942 E0.23034
G1 X97.622 Y79.117 E0.03598
G1 X100.658 Y82.153 E0.21777
G1 X99.795 Y82.153 E0.04375
G1 X96.934 Y79.293 E0.20521
G1 X96.253 Y79.474 E0.03577
G1 X98.933 Y82.153 E0.19223
G1 X98.070 Y82.153 E0.04375
G1 X95.587 Y79.670 E0.17810
G1 X94.921 Y79.867 E0.03521
G1 X97.207 Y82.153 E0.16398
G1 X96.345 Y82.153 E0.04375
G1 X94.255 Y80.064 E0.14986
G1 X93.589 Y80.261 E0.03521
G1 X95.482 Y82.153 E0.13574
G1 X94.619 Y82.153 E0.04375
G1 X92.936 Y80.470 E0.12073
G1 X92.292 Y80.689 E0.03449
G1 X93.757 Y82.153 E0.10504
G1 X92.894 Y82.153 E0.04375
G1 X91.648 Y80.908 E0.08934
G1 X91.005 Y81.127 E0.03449
G1 X92.031 Y82.153 E0.07365
G1 X91.169 Y82.153 E0.04375
G1 X90.361 Y81.345 E0.05796
G1 X89.737 Y81.584 E0.03388
G1 X90.306 Y82.153 E0.04082
G1 X89.443 Y82.153 E0.04375
G1 X89.115 Y81.825 E0.02353
G1 X88.494 Y82.066 E0.03381
G1 X88.854 Y82.427 E0.02583
;WIPE_START
G1 F8640.000
G1 X88.494 Y82.066 E-0.11760
G1 X89.115 Y81.825 E-0.15394
G1 X89.443 Y82.153 E-0.10712
G1 X90.306 Y82.153 E-0.19919
G1 X89.748 Y81.596 E-0.18215
;WIPE_END
G1 E-0.04000 F2100.000
G1 Z0.600 F10800.000
G1 X88.120 Y83.418
G1 Z0.200
G1 E0.80000 F2100.000
G1 F1200.000
G1 X87.257 Y82.555 E0.06187
G1 X86.659 Y82.819 E0.03319
G1 X87.847 Y84.007 E0.08522
G1 X87.847 Y84.870 E0.04375
G1 X86.060 Y83.083 E0.12817
G1 X86.022 Y83.100 E0.00213
G1 X86.022 Y83.907 E0.04094
G1 X87.847 Y85.733 E0.13092
G1 X87.847 Y86.595 E0.04375
G1 X86.022 Y84.770 E0.13092
G1 X86.022 Y85.633 E0.04375
G1 X87.847 Y87.458 E0.13092
G1 X87.847 Y88.321 E0.04375
G1 X86.022 Y86.495 E0.13092
G1 X86.022 Y87.358 E0.04375
G1 X87.847 Y89.183 E0.13092
G1 X87.847 Y90.046 E0.04375
G1 X86.022 Y88.221 E0.13092
G1 X86.022 Y89.083 E0.04375
G1 X87.847 Y90.909 E0.13092
G1 X87.847 Y91.771 E0.04375
G1 X86.022 Y89.946 E0.13092
G1 X86.022 Y90.809 E0.04375
G1 X87.847 Y92.634 E0.13092
G1 X87.847 Y93.496 E0.04375
G1 X86.022 Y91.671 E0.13092
G1 X86.022 Y92.534 E0.04375
G1 X87.847 Y94.359 E0.13092
G1 X87.847 Y95.222 E0.04375
G1 X86.022 Y93.396 E0.13092
G1 X86.022 Y94.259 E0.04375
G1 X87.847 Y96.084 E0.13092
G1 X87.847 Y96.947 E0.04375
G1 X86.022 Y95.122 E0.13092
G1 X86.022 Y95.984 E0.04375
G1 X87.847 Y97.810 E0.13092
G1 X87.847 Y98.672 E0.04375
G1 X86.022 Y96.847 E0.13092
G1 X86.022 Y97.710 E0.04375
G1 X87.847 Y99.535 E0.13092
G1 X87.847 Y100.398 E0.04375
G1 X86.022 Y98.572 E0.13092
G1 X86.022 Y99.435 E0.04375
G1 X87.847 Y101.260 E0.13092
G1 X87.847 Y102.123 E0.04375
G1 X86.022 Y100.298 E0.13092
G1 X86.022 Y101.160 E0.04375
G1 X87.847 Y102.986 E0.13092
G1 X87.847 Y103.848 E0.04375
G1 X86.022 Y102.023 E0.13092
G1 X86.022 Y102.886 E0.04375
G1 X87.847 Y104.711 E0.13092
G1 X87.847 Y105.573 E0.04375
G1 X86.022 Y103.748 E0.13092
G1 X86.022 Y104.611 E0.04375
G1 X87.847 Y106.436 E0.13092
G1 X87.847 Y107.299 E0.04375
G1 X86.022 Y105.473 E0.13092
G1 X86.022 Y106.336 E0.04375
G1 X87.847 Y108.161 E0.13092
G1 X87.847 Y109.024 E0.04375
G1 X86.022 Y107.199 E0.13092
G1 X86.022 Y108.061 E0.04375
G1 X87.847 Y109.887 E0.13092
G1 X87.847 Y110.749 E0.04375
G1 X86.022 Y108.924 E0.13092
M73 Q3 S33
G1 X86.022 Y109.787 E0.04375
G1 X87.847 Y111.612 E0.13092
G1 X87.847 Y112.475 E0.04375
G1 X86.022 Y110.649 E0.13092
G1 X86.022 Y111.512 E0.04375
G1 X87.847 Y113.337 E0.13092
M73 P4 R33
G1 X87.847 Y114.200 E0.04375
G1 X86.022 Y112.375 E0.13092
M73 Q4 S33
G1 X86.022 Y113.237 E0.04375
G1 X87.847 Y115.063 E0.13092
G1 X87.847 Y115.925 E0.04375
G1 X86.022 Y114.100 E0.13092
G1 X86.022 Y114.963 E0.04375
G1 X87.847 Y116.788 E0.13092
G1 X87.847 Y117.650 E0.04375
G1 X86.022 Y115.825 E0.13092
G1 X86.022 Y116.688 E0.04375
G1 X87.847 Y118.513 E0.13092
G1 X87.847 Y119.376 E0.04375
G1 X86.022 Y117.550 E0.13092
G1 X86.022 Y118.413 E0.04375
G1 X87.847 Y120.238 E0.13092
G1 X87.847 Y121.101 E0.04375
G1 X86.022 Y119.276 E0.13092
G1 X86.022 Y120.138 E0.04375
G1 X87.847 Y121.964 E0.13092
G1 X87.847 Y122.826 E0.04375
G1 X86.022 Y121.001 E0.13092
G1 X86.022 Y121.864 E0.04375
G1 X87.847 Y123.689 E0.13092
G1 X87.847 Y124.552 E0.04375
G1 X86.022 Y122.726 E0.13092
G1 X86.022 Y123.589 E0.04375
G1 X87.917 Y125.484 E0.13596
;WIPE_START
G1 F8640.000
G1 X86.022 Y123.589 E-0.61894
G1 X86.022 Y122.978 E-0.14106
;WIPE_END
G1 E-0.04000 F2100.000
G1 Z0.600 F10800.000
G1 X104.740 Y125.055
G1 Z0.200
G1 E0.80000 F2100.000
G1 F1200.000
G1 X105.347 Y125.661 E0.04350
G1 X105.347 Y126.524 E0.04375
G1 X104.151 Y125.328 E0.08578
G1 X103.288 Y125.328 E0.04375
G1 X105.347 Y127.387 E0.14765
G1 X105.347 Y128.249 E0.04375
G1 X102.426 Y125.328 E0.20953
G1 X101.563 Y125.328 E0.04375
G1 X105.347 Y129.112 E0.27141
G1 X105.347 Y129.641 E0.02685
G1 X105.295 Y129.637 E0.00263
G1 X105.272 Y129.899 E0.01338
G1 X100.700 Y125.328 E0.32789
G1 X99.838 Y125.328 E0.04375
G1 X104.362 Y129.853 E0.32456
G1 X103.310 Y129.664 E0.05422
G1 X98.975 Y125.328 E0.31097
G1 X98.112 Y125.328 E0.04375
G1 X102.223 Y129.439 E0.29484
G1 X101.122 Y129.201 E0.05713
G1 X97.250 Y125.328 E0.27776
G1 X96.387 Y125.328 E0.04375
G1 X100.021 Y128.962 E0.26067
G1 X98.881 Y128.685 E0.05950
G1 X95.525 Y125.328 E0.24079
G1 X94.662 Y125.328 E0.04375
G1 X97.724 Y128.390 E0.21964
G1 X96.566 Y128.095 E0.06059
G1 X93.799 Y125.328 E0.19848
G1 X92.937 Y125.328 E0.04375
G1 X95.349 Y127.741 E0.17307
G1 X94.125 Y127.379 E0.06478
G1 X92.074 Y125.328 E0.14709
G1 X91.211 Y125.328 E0.04375
G1 X92.873 Y126.990 E0.11919
G1 X91.566 Y126.546 E0.07000
G1 X90.349 Y125.328 E0.08734
G1 X89.486 Y125.328 E0.04375
G1 X90.257 Y126.099 E0.05528
G1 X88.847 Y125.552 E0.07666
G1 X88.350 Y125.055 E0.03567
;WIPE_START
G1 F8640.000
G1 X88.847 Y125.552 E-0.16240
G1 X90.257 Y126.099 E-0.34901
G1 X89.495 Y125.338 E-0.24860
;WIPE_END
G1 E-0.04000 F2100.000
G1 Z0.600 F10800.000
G1 X105.701 Y130.212
G1 Z0.200
G1 E0.80000 F2100.000
;TYPE:Gap fill
;WIDTH:0.163148
G1 F1200.000
G1 X105.950 Y130.234 E0.00250
;WIDTH:0.205375
G1 X106.200 Y130.256 E0.00338
;WIDTH:0.247602
G1 X106.449 Y130.279 E0.00426
;WIDTH:0.293429
G1 X106.804 Y130.304 E0.00741
;WIDTH:0.339255
G1 X107.158 Y130.330 E0.00876
;WIDTH:0.385081
G1 X107.513 Y130.356 E0.01011
;WIDTH:0.430908
G1 X107.867 Y130.381 E0.01147
;WIDTH:0.476734
G1 X108.222 Y130.407 E0.01282
;WIDTH:0.52256
G1 X108.577 Y130.432 E0.01418
;WIDTH:0.568386
G1 X108.931 Y130.458 E0.01553
;WIPE_START
G1 F8640.000
G1 X108.577 Y130.432 E-0.08209
;WIPE_END
G1 E-0.71791 F2100.000
G1 Z0.600 F10800.000
G1 X139.362 Y130.949
G1 Z0.200
G1 E0.80000 F2100.000
;TYPE:Solid infill
;WIDTH:0.663448
G1 F1200.000
G1 X138.741 Y130.328 E0.04530
G1 X137.863 Y130.328 E0.04528
G1 X138.338 Y130.803 E0.03463
G1 X137.549 Y130.891 E0.04098
G1 X136.986 Y130.328 E0.04106
G1 X136.108 Y130.328 E0.04528
G1 X136.759 Y130.979 E0.04750
G1 X135.970 Y131.067 E0.04098
G1 X135.231 Y130.328 E0.05394
G1 X134.353 Y130.328 E0.04528
G1 X135.176 Y131.151 E0.06003
G1 X134.363 Y131.215 E0.04209
G1 X133.476 Y130.328 E0.06473
G1 X132.598 Y130.328 E0.04528
G1 X133.549 Y131.280 E0.06943
G1 X132.736 Y131.344 E0.04209
G1 X131.720 Y130.328 E0.07413
G1 X130.843 Y130.328 E0.04528
G1 X131.923 Y131.408 E0.07882
G1 X131.091 Y131.454 E0.04299
G1 X129.965 Y130.328 E0.08215
G1 X129.088 Y130.328 E0.04528
G1 X130.253 Y131.494 E0.08504
G1 X129.415 Y131.533 E0.04328
G1 X128.210 Y130.328 E0.08793
G1 X127.333 Y130.328 E0.04528
G1 X128.577 Y131.573 E0.09082
