; generated by PrusaSlicer 2.1.0+ on 2020-06-02 at 04:58:28 UTC

; 

; external perimeters extrusion width = 1.00mm
; perimeters extrusion width = 1.00mm
; infill extrusion width = 1.00mm
; solid infill extrusion width = 1.00mm
; top infill extrusion width = 1.00mm
; first layer extrusion width = 1.00mm

M73 P0 R6
M73 Q0 S7
M201 X1000 Y1000 Z1000 E5000 ; sets maximum accelerations, mm/sec^2
M203 X200 Y200 Z12 E120 ; sets maximum feedrates, mm/sec
M204 P1250 R1250 T1250 ; sets acceleration (P, T) and retract acceleration (R), mm/sec^2
M205 X8.00 Y8.00 Z0.40 E1.50 ; sets the jerk limits, mm/sec
M205 S0 T0 ; sets the minimum extruding and travel feed rate, mm/sec
M107
M115 U3.7.1 ; tell printer latest fw version
G90 ; use absolute coordinates
M83 ; extruder relative mode
M104 S215 ; set extruder temp
M140 S60 ; set bed temp
G28 W ; home all without mesh bed level
G1 Z40   ; raise printhead so we can see any dangling filament
M109 S215 ; wait for extruder temp
M190 S60 ; wait for bed temp
G28 W ; home all without mesh bed level
G80 ; mesh bed leveling
G1 Y-3.0 F1000.0 ; go outside print area
G92 E0.0
G1 X60.0 E9.0 F1000.0 ; intro line
M73 Q1 S6
M73 P1 R6
G1 X100.0 E12.5 F1000.0 ; intro line
G92 E0.0
M221 S95
G21 ; set units to millimeters
G90 ; use absolute coordinates
M83 ; use relative distances for extrusion
M900 K30 ; Filament gcode
;BEFORE_LAYER_CHANGE
G92 E0.0
;0.2


G1 E-0.80000 F2100.00000
G1 Z0.600 F10800.000
;AFTER_LAYER_CHANGE
;0.2
G1 X142.221 Y65.793
G1 Z0.200
G1 E0.80000 F2100.00000
M204 S1000
G1 F1169
G1 X142.853 Y64.450 E0.11811
G1 X143.759 Y63.047 E0.13291
G1 X144.635 Y61.997 E0.10883
G1 X145.708 Y60.988 E0.11718
G1 X147.076 Y60.010 E0.13384
G1 X148.277 Y59.356 E0.10883
G1 X149.654 Y58.811 E0.11780
G1 X151.267 Y58.409 E0.13229
G1 X152.624 Y58.242 E0.10883
G1 X153.980 Y58.237 E0.10790
G1 X155.760 Y58.460 E0.14277
G1 X157.098 Y58.810 E0.11007
G1 X158.485 Y59.359 E0.11872
G1 X159.800 Y60.081 E0.11935
G1 X160.919 Y60.887 E0.10975
G1 X162.216 Y62.104 E0.14154
G1 X163.096 Y63.176 E0.11038
G1 X163.897 Y64.439 E0.11904
G1 X164.534 Y65.792 E0.11903
G1 X164.963 Y67.095 E0.10914
G1 X165.300 Y68.849 E0.14215
G1 X165.381 Y70.226 E0.10976
G1 X165.294 Y71.657 E0.11409
G1 X164.963 Y73.349 E0.13723
G1 X164.534 Y74.652 E0.10914
G1 X163.895 Y76.008 E0.11935
G1 X163.096 Y77.268 E0.11873
G1 X162.224 Y78.331 E0.10945
G1 X160.953 Y79.531 E0.13908
G1 X159.813 Y80.355 E0.11192
G1 X158.607 Y81.024 E0.10976
G1 X156.975 Y81.672 E0.13970
G1 X155.068 Y82.086 E0.15529
G1 X151.637 Y82.081 E0.27308
G1 X149.584 Y81.609 E0.16764
G1 X148.264 Y81.082 E0.11316
G1 X146.999 Y80.390 E0.11471
G1 X145.618 Y79.376 E0.13630
G1 X144.622 Y78.434 E0.10914
G1 X143.704 Y77.328 E0.11440
G1 X142.792 Y75.873 E0.13661
G1 X142.213 Y74.630 E0.10913
G1 X141.755 Y73.222 E0.11780
G1 X141.455 Y71.580 E0.13291
G1 X141.374 Y70.218 E0.10852
G1 X141.461 Y68.787 E0.11409
G1 X141.792 Y67.095 E0.13723
G1 X142.203 Y65.850 E0.10436
G1 F8640
G1 X142.853 Y64.450 E-0.35645
G1 X143.759 Y63.047 E-0.38563
G1 X143.809 Y62.987 E-0.01792
G1 E-0.04000 F2100.00000
G1 Z0.800 F10800.000
G1 X156.335 Y68.765
G1 Z0.200
G1 E0.80000 F2100.00000
G1 F1169
G1 X150.421 Y68.765 E0.47066
G1 X150.421 Y77.708 E0.71172
G1 X149.944 Y77.520 E0.04081
G1 X149.056 Y77.032 E0.08060
G1 X148.237 Y76.436 E0.08060
G1 X147.499 Y75.743 E0.08060
G1 X146.853 Y74.963 E0.08060
G1 X146.310 Y74.108 E0.08060
G1 X145.879 Y73.191 E0.08060
G1 X145.566 Y72.228 E0.08060
G1 X145.376 Y71.233 E0.08060
G1 X145.313 Y70.222 E0.08060
G1 X145.376 Y69.211 E0.08060
G1 X145.566 Y68.216 E0.08060
G1 X145.879 Y67.253 E0.08060
G1 X146.310 Y66.337 E0.08060
G1 X146.853 Y65.482 E0.08060
G1 X147.499 Y64.701 E0.08060
G1 X148.237 Y64.008 E0.08060
G1 X149.056 Y63.413 E0.08060
G1 X149.944 Y62.925 E0.08060
G1 X150.886 Y62.552 E0.08060
G1 X151.867 Y62.300 E0.08060
G1 X152.871 Y62.173 E0.08060
G1 X153.884 Y62.173 E0.08060
G1 X154.889 Y62.300 E0.08060
G1 X155.870 Y62.552 E0.08060
G1 X156.812 Y62.925 E0.08060
G1 X157.699 Y63.413 E0.08060
G1 X158.519 Y64.008 E0.08060
G1 X159.257 Y64.701 E0.08060
G1 X159.903 Y65.482 E0.08060
G1 X160.445 Y66.337 E0.08060
G1 X160.876 Y67.253 E0.08060
G1 X161.189 Y68.216 E0.08060
G1 X161.379 Y69.211 E0.08060
G1 X161.443 Y70.222 E0.08060
G1 X161.379 Y71.233 E0.08060
G1 X161.189 Y72.228 E0.08060
G1 X160.876 Y73.191 E0.08060
G1 X160.445 Y74.108 E0.08060
G1 X159.903 Y74.963 E0.08060
G1 X159.257 Y75.743 E0.08060
G1 X158.519 Y76.436 E0.08060
G1 X157.699 Y77.032 E0.08060
G1 X156.812 Y77.520 E0.08060
G1 X156.335 Y77.708 E0.04081
G1 X156.335 Y68.825 E0.70695
G1 F8640
G1 X153.044 Y68.792 E-0.76000
G1 E-0.04000 F2100.00000
G1 Z0.800 F10800.000
G1 X155.378 Y69.722
G1 Z0.200
G1 E0.80000 F2100.00000
G1 F1169
G1 X151.378 Y69.722 E0.31833
G1 X151.378 Y79.007 E0.73890
G1 X150.589 Y78.804 E0.06479
G1 X149.536 Y78.387 E0.09019
G1 X148.542 Y77.841 E0.09019
G1 X147.626 Y77.175 E0.09019
G1 X146.800 Y76.400 E0.09019
G1 X146.077 Y75.526 E0.09019
G1 X145.470 Y74.569 E0.09019
G1 X144.987 Y73.544 E0.09018
G1 X144.637 Y72.466 E0.09019
G1 X144.425 Y71.353 E0.09019
G1 X144.354 Y70.222 E0.09019
G1 X144.425 Y69.091 E0.09019
G1 X144.637 Y67.978 E0.09019
G1 X144.987 Y66.900 E0.09019
G1 X145.470 Y65.875 E0.09018
G1 X146.077 Y64.918 E0.09019
G1 X146.800 Y64.045 E0.09019
G1 X147.626 Y63.269 E0.09019
G1 X148.542 Y62.603 E0.09019
G1 X149.536 Y62.057 E0.09019
G1 X150.589 Y61.640 E0.09019
G1 X151.687 Y61.358 E0.09019
G1 X152.811 Y61.216 E0.09019
G1 X153.944 Y61.216 E0.09019
G1 X155.069 Y61.358 E0.09019
G1 X156.166 Y61.640 E0.09019
G1 X157.220 Y62.057 E0.09019
G1 X158.213 Y62.603 E0.09019
G1 X159.130 Y63.269 E0.09019
G1 X159.956 Y64.045 E0.09019
G1 X160.678 Y64.918 E0.09019
G1 X161.286 Y65.875 E0.09019
G1 X161.768 Y66.900 E0.09018
G1 X162.118 Y67.978 E0.09019
G1 X162.331 Y69.091 E0.09019
G1 X162.402 Y70.222 E0.09019
G1 X162.331 Y71.353 E0.09019
G1 X162.118 Y72.466 E0.09019
G1 X161.768 Y73.544 E0.09019
G1 X161.286 Y74.569 E0.09018
G1 X160.678 Y75.526 E0.09019
G1 X159.956 Y76.400 E0.09019
G1 X159.130 Y77.175 E0.09019
G1 X158.213 Y77.841 E0.09019
G1 X157.220 Y78.387 E0.09019
G1 X156.166 Y78.804 E0.09019
G1 X155.378 Y79.007 E0.06479
G1 X155.378 Y69.782 E0.73412
G1 X155.366 Y69.322 F10800.000
G1 F8640
G1 X152.087 Y69.733 E-0.76000
G1 E-0.04000 F2100.00000
G1 Z0.800 F10800.000
G1 X161.024 Y68.881
G1 Z0.200
G1 E0.80000 F2100.00000
G1 F1169
G1 X155.286 Y63.143 E0.65972
G1 X154.754 Y63.006 E0.04460
G1 X153.866 Y62.894 E0.07282
G1 X153.654 Y62.893 E0.01723
G1 X160.706 Y69.946 E0.81083
G1 X160.724 Y70.222 E0.02249
G1 X160.666 Y71.143 E0.07499
G1 X160.642 Y71.265 E0.01010
G1 X152.341 Y62.964 E0.95439
G1 X152.001 Y63.006 E0.02784
G1 X151.206 Y63.211 E0.06679
G1 X156.042 Y68.047 E0.55605
G1 X154.659 Y68.047 E0.11240
G1 X150.210 Y63.598 E0.51157
G1 X149.442 Y64.020 E0.07126
G1 X149.330 Y64.101 E0.01119
G1 X153.277 Y68.047 E0.45372
G1 X151.894 Y68.047 E0.11240
G1 X148.548 Y64.701 E0.38474
G1 X148.023 Y65.194 E0.05852
G1 X147.858 Y65.393 E0.02108
G1 X150.512 Y68.047 E0.30511
G1 X149.703 Y68.047 E0.06574
G1 X149.703 Y68.621 E0.04667
G1 X147.261 Y66.179 E0.28079
G1 X146.941 Y66.683 E0.04855
G1 X146.762 Y67.063 E0.03411
G1 X149.703 Y70.004 E0.33812
G1 X149.703 Y71.387 E0.11240
G1 X146.373 Y68.057 E0.38285
G1 X146.263 Y68.395 E0.02896
G1 X146.113 Y69.180 E0.06490
G1 X149.703 Y72.769 E0.41271
G1 X149.703 Y74.152 E0.11240
G1 X146.049 Y70.498 E0.42005
G1 X146.090 Y71.143 E0.05250
G1 X146.285 Y72.116 E0.08070
G1 X150.134 Y75.965 E0.44251
G1 F8640
G1 X147.806 Y73.638 E-0.76000
G1 E-0.04000 F2100.00000
G1 Z0.800 F10800.000
G1 X150.019 Y77.233
G1 Z0.200
G1 E0.80000 F2100.00000
G1 F1169
G1 X146.392 Y73.606 E0.41703
G1 F8640
G1 X148.719 Y75.933 E-0.76000
G1 E-0.04000 F2100.00000
G1 Z0.800 F10800.000
G1 X157.734 Y76.652
G1 Z0.200
G1 E0.80000 F2100.00000
G1 F1169
G1 X157.053 Y75.971 E0.07828
G1 X157.053 Y74.588 E0.11240
G1 X158.208 Y75.744 E0.13281
G1 X158.733 Y75.251 E0.05853
G1 X158.898 Y75.051 E0.02107
G1 X157.053 Y73.206 E0.21214
G1 X157.053 Y71.823 E0.11240
G1 X159.495 Y74.265 E0.28078
G1 X159.815 Y73.761 E0.04856
G1 X159.994 Y73.381 E0.03411
G1 X157.053 Y70.440 E0.33812
G1 X157.053 Y69.058 E0.11240
G1 X160.725 Y72.730 E0.42215
G1 F8640
G1 X158.397 Y70.402 E-0.76000
G1 E-0.04000 F2100.00000
G1 Z0.800 F10800.000
G1 X160.364 Y66.839
G1 Z0.200
G1 E0.80000 F2100.00000
G1 F1169
G1 X156.736 Y63.211 E0.41708
M106 S255
;BEFORE_LAYER_CHANGE
G92 E0.0
;0.5


G1 F8640
G1 X159.064 Y65.538 E-0.76000
G1 E-0.04000 F2100.00000
G1 Z0.800 F10800.000
;AFTER_LAYER_CHANGE
;0.5
G1 X162.216 Y62.104
G1 Z0.500
G1 E0.80000 F2100.00000
G1 F1121
G1 X163.096 Y63.176 E0.16185
G1 X163.897 Y64.439 E0.17455
G1 X164.534 Y65.792 E0.17455
G1 X164.963 Y67.095 E0.16004
G1 X165.300 Y68.849 E0.20845
G1 X165.381 Y70.226 E0.16094
G1 X165.294 Y71.657 E0.16730
G1 X164.963 Y73.349 E0.20123
G1 X164.534 Y74.652 E0.16003
G1 X163.895 Y76.008 E0.17500
G1 X163.096 Y77.268 E0.17409
G1 X162.224 Y78.331 E0.16049
G1 X160.953 Y79.531 E0.20394
G1 X159.813 Y80.355 E0.16412
G1 X158.607 Y81.024 E0.16094
G1 X156.975 Y81.672 E0.20484
G1 X155.068 Y82.086 E0.22772
G1 X151.637 Y82.081 E0.40044
G1 X149.584 Y81.609 E0.24583
G1 X148.264 Y81.082 E0.16593
G1 X146.999 Y80.390 E0.16821
G1 X145.618 Y79.376 E0.19987
G1 X144.622 Y78.434 E0.16003
G1 X143.704 Y77.328 E0.16775
G1 X142.792 Y75.873 E0.20032
G1 X142.213 Y74.630 E0.16003
G1 X141.755 Y73.222 E0.17274
G1 X141.455 Y71.580 E0.19489
G1 X141.374 Y70.218 E0.15913
G1 X141.461 Y68.787 E0.16730
G1 X141.792 Y67.095 E0.20123
G1 X142.221 Y65.793 E0.16003
G1 X142.853 Y64.450 E0.17319
G1 X143.759 Y63.047 E0.19489
G1 X144.635 Y61.997 E0.15958
G1 X145.708 Y60.988 E0.17183
G1 X147.076 Y60.010 E0.19625
G1 X148.277 Y59.356 E0.15958
G1 X149.654 Y58.811 E0.17274
G1 X151.267 Y58.409 E0.19399
G1 X152.624 Y58.242 E0.15959
G1 X153.980 Y58.237 E0.15822
G1 X155.760 Y58.460 E0.20935
G1 X157.098 Y58.810 E0.16140
G1 X158.485 Y59.359 E0.17409
G1 X159.800 Y60.081 E0.17501
G1 X160.919 Y60.887 E0.16094
G1 X162.172 Y62.063 E0.20055
G1 F8640
G1 X163.096 Y63.176 E-0.33399
G1 X163.897 Y64.439 E-0.34538
G1 X164.045 Y64.755 E-0.08063
G1 E-0.04000 F2100.00000
G1 Z1.100 F10800.000
G1 X156.313 Y68.787
G1 Z0.500
G1 E0.80000 F2100.00000
M204 S800
G1 F1121
G1 X150.442 Y68.787 E0.68515
G1 X150.442 Y77.740 E1.04483
G1 X149.935 Y77.539 E0.06369
G1 X149.045 Y77.050 E0.11851
G1 X148.223 Y76.453 E0.11851
G1 X147.483 Y75.758 E0.11851
G1 X146.836 Y74.975 E0.11851
G1 X146.292 Y74.118 E0.11851
G1 X145.859 Y73.199 E0.11851
G1 X145.545 Y72.233 E0.11851
G1 X145.355 Y71.236 E0.11851
G1 X145.291 Y70.222 E0.11851
G1 X145.355 Y69.209 E0.11851
G1 X145.545 Y68.211 E0.11851
G1 X145.859 Y67.245 E0.11851
G1 X146.292 Y66.326 E0.11851
G1 X146.836 Y65.469 E0.11851
G1 X147.483 Y64.687 E0.11851
G1 X148.223 Y63.991 E0.11851
G1 X149.045 Y63.394 E0.11851
G1 X149.935 Y62.905 E0.11851
G1 X150.879 Y62.531 E0.11851
G1 X151.863 Y62.279 E0.11851
G1 X152.870 Y62.152 E0.11851
G1 X153.886 Y62.152 E0.11851
G1 X154.893 Y62.279 E0.11851
G1 X155.877 Y62.531 E0.11851
G1 X156.821 Y62.905 E0.11851
G1 X157.711 Y63.394 E0.11851
G1 X158.532 Y63.991 E0.11851
G1 X159.273 Y64.687 E0.11851
G1 X159.920 Y65.469 E0.11851
G1 X160.464 Y66.326 E0.11851
G1 X160.896 Y67.245 E0.11851
G1 X161.210 Y68.211 E0.11851
G1 X161.401 Y69.209 E0.11851
G1 X161.464 Y70.222 E0.11851
G1 X161.401 Y71.236 E0.11851
G1 X161.210 Y72.233 E0.11851
G1 X160.896 Y73.199 E0.11851
G1 X160.464 Y74.118 E0.11851
G1 X159.920 Y74.975 E0.11851
G1 X159.273 Y75.758 E0.11851
G1 X158.532 Y76.453 E0.11851
G1 X157.711 Y77.050 E0.11851
G1 X156.821 Y77.539 E0.11851
G1 X156.313 Y77.740 E0.06369
G1 X156.313 Y68.847 E1.03783
M204 S1000
G1 F8640
G1 X153.022 Y68.813 E-0.76000
G1 E-0.04000 F2100.00000
G1 Z1.100 F10800.000
G1 X155.378 Y69.722
G1 Z0.500
G1 E0.80000 F2100.00000
M204 S800
G1 F1121
G1 X151.378 Y69.722 E0.46678
G1 X151.378 Y79.007 E1.08350
G1 X150.589 Y78.804 E0.09501
G1 X149.536 Y78.387 E0.13224
G1 X148.542 Y77.841 E0.13224
G1 X147.626 Y77.175 E0.13224
G1 X146.800 Y76.400 E0.13225
G1 X146.077 Y75.526 E0.13224
G1 X145.470 Y74.569 E0.13224
G1 X144.987 Y73.544 E0.13224
G1 X144.637 Y72.466 E0.13225
G1 X144.425 Y71.353 E0.13224
G1 X144.354 Y70.222 E0.13224
G1 X144.425 Y69.091 E0.13224
G1 X144.637 Y67.978 E0.13224
G1 X144.987 Y66.900 E0.13225
G1 X145.470 Y65.875 E0.13224
G1 X146.077 Y64.918 E0.13224
G1 X146.800 Y64.045 E0.13224
G1 X147.626 Y63.269 E0.13225
G1 X148.542 Y62.603 E0.13224
G1 X149.536 Y62.057 E0.13224
G1 X150.589 Y61.640 E0.13224
G1 X151.687 Y61.358 E0.13224
G1 X152.811 Y61.216 E0.13224
G1 X153.944 Y61.216 E0.13225
G1 X155.069 Y61.358 E0.13224
G1 X156.166 Y61.640 E0.13224
G1 X157.220 Y62.057 E0.13224
G1 X158.213 Y62.603 E0.13224
G1 X159.130 Y63.269 E0.13224
G1 X159.956 Y64.045 E0.13225
G1 X160.678 Y64.918 E0.13224
G1 X161.286 Y65.875 E0.13224
G1 X161.768 Y66.900 E0.13224
G1 X162.118 Y67.978 E0.13225
G1 X162.331 Y69.091 E0.13224
G1 X162.402 Y70.222 E0.13224
G1 X162.331 Y71.353 E0.13224
G1 X162.118 Y72.466 E0.13224
G1 X161.768 Y73.544 E0.13225
G1 X161.286 Y74.569 E0.13224
G1 X160.678 Y75.526 E0.13224
G1 X159.956 Y76.400 E0.13224
G1 X159.130 Y77.175 E0.13225
G1 X158.213 Y77.841 E0.13224
G1 X157.220 Y78.387 E0.13224
G1 X156.166 Y78.804 E0.13224
G1 X155.378 Y79.007 E0.09501
G1 X155.378 Y69.782 E1.07650
M204 S1000
G1 X155.366 Y69.322 F10800.000
G1 F8640
G1 X152.087 Y69.733 E-0.76000
G1 E-0.04000 F2100.00000
G1 Z1.100 F10800.000
G1 X160.391 Y73.615
G1 Z0.500
G1 E0.80000 F2100.00000
M204 S1250
G1 F1121
G1 X156.745 Y77.261 E0.63091
M204 S1000
G1 F8640
G1 X159.072 Y74.933 E-0.76000
G1 E-0.04000 F2100.00000
G1 Z1.100 F10800.000
G1 X156.594 Y76.024
G1 Z0.500
G1 E0.80000 F2100.00000
M204 S1250
G1 F1121
G1 X160.515 Y72.103 E0.67843
G1 X160.703 Y71.148 E0.11920
G1 X160.745 Y70.486 E0.08112
G1 X157.015 Y74.215 E0.64537
G1 X157.015 Y72.828 E0.16976
G1 X160.678 Y69.165 E0.63383
G1 X160.529 Y68.386 E0.09707
G1 X160.417 Y68.039 E0.04462
G1 X157.015 Y71.441 E0.58861
G1 X157.015 Y70.053 E0.16976
G1 X160.026 Y67.043 E0.52095
G1 X159.848 Y66.665 E0.05106
G1 X159.525 Y66.156 E0.07377
G1 X157.015 Y68.666 E0.43430
G1 X157.015 Y68.085 E0.07109
G1 X156.209 Y68.085 E0.09867
G1 X158.926 Y65.368 E0.47014
G1 X158.760 Y65.168 E0.03178
G1 X158.233 Y64.673 E0.08845
G1 X154.821 Y68.085 E0.59040
G1 X153.434 Y68.085 E0.16976
G1 X157.448 Y64.071 E0.69460
G1 X157.334 Y63.988 E0.01723
G1 X156.566 Y63.566 E0.10729
G1 X152.047 Y68.085 E0.78201
G1 X150.659 Y68.085 E0.16976
G1 X155.568 Y63.176 E0.84936
G1 X154.761 Y62.969 E0.10184
G1 X154.429 Y62.928 E0.04098
G1 X146.078 Y71.279 E1.44517
G1 X146.226 Y72.058 E0.09709
G1 X146.339 Y72.405 E0.04460
G1 X149.740 Y69.004 E0.58861
G1 X149.740 Y70.391 E0.16976
G1 X146.730 Y73.401 E0.52096
G1 X146.908 Y73.779 E0.05107
G1 X147.231 Y74.288 E0.07376
G1 X149.740 Y71.778 E0.43431
G1 X149.740 Y73.166 E0.16976
G1 X147.830 Y75.076 E0.33062
G1 X147.995 Y75.276 E0.03179
G1 X148.522 Y75.771 E0.08844
G1 X149.740 Y74.553 E0.21079
G1 X149.740 Y75.940 E0.16976
G1 X149.006 Y76.675 E0.12707
M204 S1000
G1 F8640
G1 X149.740 Y75.940 E-0.23979
G1 X149.740 Y74.553 E-0.32035
G1 X149.128 Y75.165 E-0.19986
G1 E-0.04000 F2100.00000
G1 Z1.100 F10800.000
G1 X145.583 Y70.386
G1 Z0.500
G1 E0.80000 F2100.00000
M204 S1250
G1 F1121
G1 X153.116 Y62.853 E1.30356
G1 X152.914 Y62.853 E0.02468
G1 X151.994 Y62.969 E0.11345
G1 X151.480 Y63.101 E0.06492
G1 X145.704 Y68.878 E0.99959
M204 S1000
G1 F8640
G1 X148.031 Y66.551 E-0.76000
G1 E-0.04000 F2100.00000
G1 Z1.100 F10800.000
G1 X146.365 Y66.829
G1 Z0.500
G1 E0.80000 F2100.00000
M204 S1250
G1 F1121
G1 X150.011 Y63.184 E0.63084
M204 S1000
;BEFORE_LAYER_CHANGE
G92 E0.0
;0.8


G1 F8640
G1 X147.683 Y65.511 E-0.76000
G1 E-0.04000 F2100.00000
G1 Z1.100 F10800.000
;AFTER_LAYER_CHANGE
;0.8
G1 X143.759 Y63.047
G1 Z0.800
G1 E0.80000 F2100.00000
G1 F1117
G1 X144.635 Y61.997 E0.15958
G1 X145.708 Y60.988 E0.17183
G1 X147.076 Y60.010 E0.19625
G1 X148.277 Y59.356 E0.15958
G1 X149.654 Y58.811 E0.17274
G1 X151.267 Y58.409 E0.19399
G1 X152.624 Y58.242 E0.15959
G1 X153.980 Y58.237 E0.15822
G1 X155.760 Y58.460 E0.20935
G1 X157.098 Y58.810 E0.16140
G1 X158.485 Y59.359 E0.17409
G1 X159.800 Y60.081 E0.17501
